X:1
T:Title
%%score { 1 | 2 }
L:1/8
M:3/4
K:Ab
V:1 treble nm="Grand Piano"
V:2 bass 
V:1
 z2 z2[Q:1/4=94] [CE]>[CE] | [CE]3 [CE] [DF]>[CE] | [Ec]2 [CA]2 [DA][EG] | [DF]3 [FA] [Fd]>[A,DF] | %4
[M:2/4] [A,CE]4 |[M:1/4] (3ECE |[M:3/4] A2 A2 Bc |[M:7/8] [Fd]2 [Fd]3 [Fc][FB] | %8
[M:3/4] [Ee]>A c2 B2 |[M:2/4] [CEA]4 |[M:1/4] [GB]>[GB] |[M:3/4] [Ge]3 [Gd] [Gc][DGB] | %12
 [CA]2 [Ec]2 [A,EA][A,EG] | [A,DF]3 [DFA] [Fd]>[A,DF] |[M:2/4] [A,CE]4 |[M:1/4] (3ECE | %16
[M:3/4] A3 A Bc |[M:7/8] [Fd]2 [Fd]3 [Fc][FB] |[M:3/4] [Ee]>A c2 B2 |[M:2/4] [CEA]4 |] %20
V:2
 z2 z2 [A,,A,]>[A,,A,] | [A,,A,]3 [A,,A,] [A,,A,]>[A,,A,] | [A,,A,]2 [A,,A,]2 [C,A,][C,A,] | %3
 [D,A,]3 [D,D] [D,A,]>D, |[M:2/4] A,,4 |[M:1/4] (3E,C,E, | %6
[M:3/4] A,2[K:treble] [A,CE]2 [G,B,E][A,_G] |[M:7/8][K:bass] [D,A,]2 [D,A,]3 [D,A,][D,A,] | %8
[M:3/4] [C,A,]>[F,A,=D] [E,A,E]2 [E,_DE]2 |[M:2/4] A,,4 |[M:1/4] [E,E]>[E,E] | %11
[M:3/4] [E,B,]3 [E,E] [E,E]E, | A,2 A,2 C,C, | D,3 D, [D,A,]>D, |[M:2/4] A,,4 |[M:1/4] (3E,C,E, | %16
[M:3/4] A,3[K:treble] [A,CE] [G,B,E][A,_G] |[M:7/8][K:bass] [D,A,]2 [D,A,]3 [D,A,][D,A,] | %18
[M:3/4] [C,A,]>[F,A,=D] [E,A,E]2 [E,_DE]2 |[M:2/4] A,,4 |] %20

